dist/img/icons/social/ok.svg

<svg width="24" height="24" viewBox="0 0 24 24" fill="none" xmlns="http://www.w3.org/2000/svg">
<path d="M12 24C18.6274 24 24 18.6274 24 12C24 5.37258 18.6274 0 12 0C5.37258 0 0 5.37258 0 12C0 18.6274 5.37258 24 12 24Z" fill="#494747" fill-opacity="1"/>
<path d="M11.4095 14.4521C10.4795 14.3558 9.64103 14.1269 8.92261 13.5648C8.83146 13.4979 8.74397 13.4263 8.6605 13.35C8.5246 13.2289 8.43771 13.0623 8.41622 12.8816C8.39474 12.7008 8.44014 12.5185 8.54387 12.3689C8.6476 12.2193 8.80248 12.1129 8.97929 12.0696C9.15611 12.0264 9.34263 12.0494 9.50366 12.1342C9.57573 12.1683 9.64445 12.209 9.70893 12.2558C10.3745 12.7075 11.1587 12.9524 11.963 12.9597C12.7673 12.967 13.5558 12.7364 14.2295 12.2969C14.3598 12.1927 14.5096 12.1155 14.67 12.0695C14.8179 12.0264 14.9761 12.0341 15.1191 12.0913C15.2622 12.1486 15.382 12.2521 15.4595 12.3853C15.6568 12.7011 15.6537 13.0169 15.4121 13.2663C15.0408 13.6423 14.5919 13.9328 14.0968 14.1174C13.6153 14.2901 13.114 14.4021 12.6047 14.4506C12.6821 14.5342 12.7184 14.5753 12.7626 14.6242C13.4542 15.319 14.1474 16.009 14.8358 16.7069C14.946 16.8061 15.0211 16.9384 15.0496 17.0839C15.078 17.2295 15.0584 17.3803 14.9937 17.5137C14.9266 17.6595 14.818 17.7822 14.6815 17.8664C14.545 17.9507 14.3866 17.9928 14.2263 17.9874C14.0381 17.9717 13.863 17.8848 13.7368 17.7443C13.2142 17.22 12.6837 16.7037 12.1721 16.1653C12.0237 16.0074 11.9526 16.039 11.8216 16.1653C11.2952 16.7053 10.7637 17.239 10.2268 17.7664C10.1273 17.8763 9.99414 17.9502 9.84816 17.9765C9.70218 18.0028 9.55161 17.98 9.41998 17.9116C9.277 17.8453 9.15623 17.7391 9.0722 17.6058C8.98816 17.4724 8.94444 17.3176 8.94629 17.16C8.96127 16.9651 9.05195 16.7837 9.19892 16.6548C9.88208 15.9727 10.5663 15.2885 11.2516 14.6021C11.3021 14.5706 11.3431 14.5264 11.4095 14.4521Z" fill="white"/>
<path d="M11.9763 12.0743C11.3746 12.0708 10.7875 11.8887 10.2894 11.5511C9.79135 11.2135 9.40475 10.7356 9.17865 10.178C8.95254 9.62041 8.89711 9.00822 9.01938 8.41908C9.14166 7.82993 9.43613 7.29037 9.86546 6.8688C10.2948 6.44724 10.8396 6.16266 11.4309 6.05115C12.0222 5.93965 12.6333 6.00625 13.1867 6.24249C13.74 6.47874 14.2108 6.874 14.5392 7.37814C14.8677 7.88229 15.039 8.47262 15.0315 9.07428C15.0211 9.87627 14.6941 10.6417 14.1218 11.2036C13.5495 11.7655 12.7783 12.0785 11.9763 12.0743ZM13.4842 9.0348C13.4835 8.74067 13.3956 8.45335 13.2316 8.20923C13.0675 7.96511 12.8347 7.77517 12.5626 7.66348C12.2905 7.5518 11.9913 7.52338 11.7031 7.58184C11.4148 7.6403 11.1504 7.783 10.9433 7.99186C10.7362 8.20073 10.5958 8.46636 10.5398 8.75511C10.4838 9.04386 10.5147 9.34273 10.6287 9.61387C10.7427 9.885 10.9347 10.1162 11.1802 10.2782C11.4257 10.4402 11.7137 10.5256 12.0079 10.5237C12.2026 10.5231 12.3953 10.4841 12.575 10.4089C12.7547 10.3337 12.9177 10.2238 13.0549 10.0855C13.192 9.94719 13.3005 9.7832 13.3742 9.60291C13.4478 9.42261 13.4852 9.22956 13.4842 9.0348Z" fill="white"/>
</svg>

<svg width="24" height="24" fill="none" xmlns="http://www.w3.org/2000/svg"><path d="M12 24c6.627 0 12-5.373 12-12S18.627 0 12 0 0 5.373 0 12s5.373 12 12 12z" fill="#494747"/><path d="M11.41 14.452c-.93-.096-1.769-.325-2.487-.887a3.156 3.156 0 01-.262-.215.745.745 0 01.843-1.216c.072.034.14.075.205.122a4.08 4.08 0 004.52.04c.13-.103.28-.18.441-.226a.69.69 0 01.79.315c.197.316.194.632-.048.881a3.62 3.62 0 01-1.315.851 6.146 6.146 0 01-1.492.334l.158.173c.691.695 1.384 1.385 2.073 2.083a.684.684 0 01.158.807.814.814 0 01-.768.473.74.74 0 01-.49-.243c-.522-.524-1.052-1.04-1.564-1.579-.148-.158-.22-.126-.35 0a104.24 104.24 0 01-1.595 1.601.671.671 0 01-.807.146.818.818 0 01-.474-.752.748.748 0 01.253-.505l2.053-2.053a.776.776 0 00.157-.15z" fill="#fff"/><path d="M11.976 12.074a3.038 3.038 0 11.036-6.076 3.038 3.038 0 01-.036 6.076zm1.508-3.04a1.487 1.487 0 10-2.973.008 1.487 1.487 0 002.973-.007z" fill="#fff"/></svg>
